!!!OTL@@DE: Lieben bringt Freud'
!!!ONB: Schw&auml;bisches Volkslied
!!!ODT: 1825
!!!OMD: Einfach und innig
!!!OCL: Erk, Ludwig
!!!GCO: Deutscher Liederschatz, Band 3
**kern	**kern	**kern
*staff3	*staff2	*staff1
*Ipiano	*Ipiano	*Ivox
*clefF4	*clefG2	*clefG2
*k[f#]	*k[f#]	*k[f#]
*G:	*G:	*G:
*met(C)	*met(C)	*met(C)
*M4/4	*M4/4	*M4/4
*MM120	*MM120	*MM120
*	*	*^
4D\	4d/	4d\	4d/
=1	=1	=1	=1
*	*^	*	*
4.B\	4d\	4.g/	4.g/	4.B\
.	2d\	.	.	.
8A\	.	8f#/ 8a/	8a/	8d\
4G\	.	4g/ 4b/	4b/	4g\
*	*v	*v	*	*
4G\	8a\ (8cc\L	8cc/L	8a\L
.	8cc\ 8ee\J)	8ee/J	8cc\J
=2	=2	=2	=2
*^	*	*	*
(4GG/	2.GG\	2.dd\	2dd/	2b\
4D/	.	.	.	.
4G/)	.	.	4r	4ryy
*v	*v	*	*	*
4r	4g/ 4b/	4b/	4g\
=3	=3	=3	=3
*^	*	*	*
4D/	2D\	4b\ 4dd\	4dd/	4b\
2.d/	.	4b\ 4dd\	4dd/	4b\
.	4D\	4a\ 4cc\	4cc/	4a\
.	4F#\	8b\ (8dd\L	8dd/L	8b\L
.	.	8a\ 8cc\J)	8cc/J	8a\J
=4	=4	=4	=4	=4
2.d/	2.G\	2.g/ 2.b/	2b/	2g\
*	*	*	*v	*v
.	.	.	4r
*v	*v	*	*
=	=	=
*	*^	*^
(8B\L	(8g/L	4g\	8g/L	4g\
8d\J)	8b/J)	.	8b/J	.
*	*v	*v	*	*
=5	=5	=5	=5
*^	*	*	*
(2.D\	4D/	4b\ 4dd\	4dd/	4b\
.	8G/L	4b\ 4dd\	4dd/	4b\
.	8B/J	.	.	.
.	4d/)	4b\ 4dd\	4dd/	4b\
4r	4d/	8cc\ (8ee\L	8ee/L	8cc\L
.	.	8b\ 8dd\J)	8dd/J	8b\J
=6	=6	=6	=6	=6
(4D/	2.D\	8b\ (8dd\L	8dd/L	8b\L
.	.	8a\ 8cc\J)	8cc/J	8a\J
8F#/L	.	(8a/ 8cc/L	8cc/L	8a\L
8A/J	.	8g/) 8b/J	8b/J	8g\J
4d/)	.	4a\ 4cc\	4cc/	4a\
4F#/	4D\	8b\ (8dd\L	8dd/L	8b\L
.	.	8a\ 8cc\J)	8cc/J	8a\J
=7	=7	=7	=7	=7
4G\	4G/	4g/ 4b/	4b/	4g\
*v	*v	*	*	*
4d\	4g/ 4b/	4b/	4g\
4B\	(8g/ 8b/L	8b/L	8g\L
.	8b/) 8dd/J	8dd/J	8b\J
4G\	(8a/ 8cc/L	8cc/L	8a\L
.	8g/) 8b/J	8b/J	8g\J
=8	=8	=8	=8
*^	*	*	*
4D/	2D\	(8f#/ 8a/L	8a/L	8f#\L
.	.	8e/) 8g/J	8g/J	8e\J
4A/	.	8d/ (8f#/L	(8f#/L	8d\L
.	.	8e/ 8g/J)	8g/J)	8e\J
*v	*v	*	*	*
4DD/ 4D/	4f#/ 4a/	4a/	4f#\
(8B\L	(8d/ 8g/L	8g/L	8d\L
8d\J)	8f#/) 8a/J	8a/J	8f#\J
=9	=9	=9	=9
4G\	2.d/ 2.g/ 2.b/	2b/	2g\
4D'\	.	.	.
4GG'/	.	4r	4ryy
4r	8a\ (8cc\L	8cc/L	8a\L
.	8cc\ 8ee\J)	8ee'/J	8cc\J
=10	=10	=10	=10
4r	2.b\ 2.dd\	2dd/	2b\
4G\	.	.	.
4GG/	.	4r	4ryy
4r	4g/ 4b/	4b/	4g'\
=11	=11	=11	=11
*^	*	*	*
4D/	2D\	4b\ 4dd\	4dd/	4b\
2.d/	.	4b\ 4dd\	4dd/	4b\
.	4D/	4a\ 4cc\	4cc/	4a\
.	4F#/	8b\ (8dd\L	8dd/L	8b\L
.	.	8a\ 8cc\J)	8cc/J	8a\J
=12	=12	=12	=12	=12
2.d/	2.G\	2.g/ 2.b/	2b/	2g\
*	*	*	*v	*v
.	.	.	4r
*v	*v	*	*
==	==	==
*-	*-	*-
!!!ENC: Craig Stuart Sapp
!!!END: 2004/05/21/
!!!EFL: 420/600
